X: 36
T: Maple sugar
N: Derived from ojibwa36.krn
C: Chippewa Songs ~ 1910
O: Red Wing, Minnesota, U.S.A
N: Chippewa Music by Frances Densmore, 1910
Z: transcribed to **kern format by Paul von Hippel and Daniel T. Shanahan
L: 1/8
M: 2/4
Q: 1/4=108
K: G clef=bass
%%linebreak <none>
D< DD2 | 
E DD2 | 
D> C D/ A,3/ | 
D< DD2 | 
E DD2 | 
D> C D/ A,3/ | 
[M:3/4]D< G, G,> E,D,2 | 
G,< G,G,2A, G, | 
[M:2/4]A,< G, G,3/ E,/ | 
D,2E, E, | 
D,> D,D,2- | 
[M:3/4]D,6 | 
[M:2/4]A,> A, A,3/ A,/ | 
A,> A, A,3/ A,/ | 
D> A,G,2 | 
[M:3/4]A,< G, G,> E,D,2 | 
G,< G,G,2A, G, | 
[M:2/4]A,< G, G,3/ E,/ | 
D,2E, E, | 
D,> D,D,2- | 
D,4 |]  



